X:127
T: Tannebaum
N: A0491
O: Europa, Mitteleuropa, Deutschland
N: M. Franck, Fasc. Quodl. 1611  No. 3.
R: Romanze, Ballade, Lied
M: 4/4
L: 1/8
K: G
G2 | G3FG2A2 | _B3BG2
A2 | _B2=F2G2A2 | _B4z2
B2 | _B3BB2B2 | A4A2
d2 | G2G2F2F2 | G4z2

@@@ Tune index: 440
